**kern	**silbe	**kern	**silbe
*ICvox	*	*ICvox	*
=1	=1	=1	=1
*g:	*	*g:	*
*M4/4	*	*M4/4	*
*clefF4	*	*clefF4	*
1r	.	1r	.
=2	=2	=2	=2
1r	.	1r	.
=3	=3	=3	=3
1r	.	1r	.
=4	=4	=4	=4
1r	.	1r	.
=5	=5	=5	=5
1r	.	1r	.
=6	=6	=6	=6
1r	.	1r	.
=7	=7	=7	=7
1r	.	1r	.
=8	=8	=8	=8
1r	.	1r	.
=9	=9	=9	=9
1r	.	1r	.
=10	=10	=10	=10
1r	.	1r	.
=11	=11	=11	=11
8r	.	1r	.
8B-	You	.	.
8B-	got	.	.
16B-	me	.	.
16B-	loo	.	.
8r	.	.	.
8B-	kin'	.	.
8B-	at	.	.
8B-	that	.	.
=12	=12	=12	=12
8c	hea-	1r	.
16c	-ven	.	.
[16c	in	.	.
16c]	_	.	.
8c	your	.	.
16G	eyes	.	.
8F	_	.	.
8r	.	.	.
16r	.	.	.
16G	I	.	.
8A	was	.	.
=13	=13	=13	=13
8B-	cha-	1r	.
16B-	-sin'	.	.
[16B-	your	.	.
16B-]	_	.	.
8B-	di-	.	.
[16B-	-rec	.	.
8B-]	_	.	.
8G	tion,	.	.
16r	.	.	.
16G	I	.	.
8B-	was	.	.
=14	=14	=14	=14
8A	te-	1r	.
16A	-llin'	.	.
[16A	you	.	.
16A]	_	.	.
8A	no	.	.
[16A	lies	.	.
16A]	,	.	.
16A	and	.	.
[8B-	I	.	.
8B-]	_	.	.
8A	was	.	.
=15	=15	=15	=15
16A	lo-	1r	.
8G	-vin'	.	.
[16G	you	.	.
8G]	,	.	.
8r	.	.	.
8B-	when	.	.
16B-	the	.	.
[16c	words	.	.
8.c]	_	.	.
[16B-	are	.	.
=16	=16	=16	=16
16B-]	_	1r	.
16G	said	.	.
16F	,	.	.
16r	.	.	.
4r	.	.	.
8.r	.	.	.
[16G	ba	.	.
16G]	_	.	.
16G	by,	.	.
8G	I	.	.
=17	=17	=17	=17
8G	lose	1r	.
8B-	my	.	.
4G	head.	.	.
2r	.	.	.
=18	=18	=18	=18
2r	.	1r	.
8r	.	.	.
8d	And	.	.
8d	in	.	.
8d	a	.	.
=19	=19	=19	=19
8r	.	1r	.
8e-	world	.	.
8d	of	.	.
cq	_	.	.
8d	peo	.	.
8c	_	.	.
8c	ple,	.	.
16r	.	.	.
8.B-	there's	.	.
=20	=20	=20	=20
*	*	*clefG2	*
8d	on-	1r	.
16c	-ly	.	.
[16c	you	.	.
16c]	_	.	.
8B-	and	.	.
[16B-	I	.	.
8B-]	_	.	.
8r	.	.	.
16r	.	.	.
16d	There	.	.
8d	ain't	.	.
=21	=21	=21	=21
16e-	no-	1r	.
8e-	-thin'	.	.
[16e-	come	.	.
8e-]	_	.	.
16d	be-	.	.
[16d	-tween	.	.
16d]	_	.	.
8c	us	.	.
[16c	in	.	.
8c]	_	.	.
16B-	the	.	.
[16c	end	.	.
=22	=22	=22	=22
16c]	_	2r	.
8.B-	_	.	.
4r	.	.	.
2r	.	8r	.
.	.	[4.g [b- [dd	How
=23	=23	=23	=23
1r	.	4g] b-] dd]	_
.	.	16g b- dd	can
.	.	8g b- dd	I
.	.	16g b- dd	hold
.	.	8f a cc	_
.	.	8f a cc	you
.	.	8f a cc	when
.	.	8e- g b-	you
=24	=24	=24	=24
1r	.	8e- g b-	ain't
.	.	8d f a	e-
.	.	8d f a	-ven
.	.	[8d [g [b-	mine
.	.	16d] g] b-]	_
.	.	16c f a	_
.	.	8B- d g	?
.	.	4r	.
=25	=25	=25	=25
8r	.	1r	.
16c	On-	.	.
16c	-ly	.	.
16c	you	.	.
8.c	can	.	.
8d	see	.	.
16c	me	.	.
16c	through,	.	.
4r	.	.	.
=26	=26	=26	=26
8r	.	1r	.
8d	I	.	.
8d	leave	.	.
16d	it	.	.
16d	all	.	.
8c	_	.	.
16B-	to	.	.
[16c	you	.	.
16c]	_	.	.
16B-	_	.	.
16G	!	.	.
16r	.	.	.
=27	=27	=27	=27
8F	Do	1r	.
8G	it	.	.
B-q	_	.	.
8c	light,	.	.
8r	.	.	.
8r	.	.	.
[8B-	ta	.	.
16B-]	_	.	.
16G	kin'	.	.
8F	me	.	.
=28	=28	=28	=28
8D	through	1r	.
8G	the	.	.
8G	night.	.	.
8r	.	.	.
8r	.	.	.
8F	Sha-	.	.
8G	-dow	.	.
8B-	dan-	.	.
=29	=29	=29	=29
Fq	_	1r	.
8.G	-cing	.	.
16F	_	.	.
16D	_	.	.
16C	_	.	.
8BB-	,	.	.
8r	.	.	.
[8F	ba	.	.
16F]	_	.	.
16D	by,	.	.
8C	you	.	.
=30	=30	=30	=30
8BB-	do	1r	.
16C	it	.	.
16BB-	_	.	.
8D	right	.	.
16C	_	.	.
16BB-	,	.	.
8r	.	.	.
8c	uh-	.	.
16c	-huh	.	.
16B-	_	.	.
8G	!	.	.
=31	=31	=31	=31
8F	Give	1r	.
8G	me	.	.
B-q	_	.	.
4c	more!	.	.
d-	_	.	.
c	_	.	.
8r	.	.	.
[8B-	Drag	.	.
16B-]	_	.	.
16G	me	.	.
8F	a-	.	.
=32	=32	=32	=32
8D	-cross	1r	.
8G	the	.	.
8G	floor!	.	.
8r	.	.	.
8r	.	.	.
8F	Sha-	.	.
8G	-dow	.	.
8B-	dan-	.	.
=33	=33	=33	=33
Fq	_	1r	.
8.G	-cing	.	.
16F	_	.	.
16D	_	.	.
16C	_	.	.
8BB-	,	.	.
8r	.	.	.
[8F	all	.	.
16F]	_	.	.
16D	this	.	.
8C	and	.	.
=34	=34	=34	=34
8BB-	no-	1r	.
16C	-thin'	.	.
16BB-	_	.	.
8D	more	.	.
16C	_	.	.
16BB-	!	.	.
2r	.	.	.
=35	=35	=35	=35
1r	.	1r	.
=36	=36	=36	=36
1r	.	1r	.
=37	=37	=37	=37
1r	.	1r	.
=38	=38	=38	=38
1r	.	1r	.
=39	=39	=39	=39
1r	.	1r	.
=40	=40	=40	=40
1r	.	1r	.
=41	=41	=41	=41
1r	.	1r	.
=42	=42	=42	=42
1r	.	1r	.
=43	=43	=43	=43
1r	.	1r	.
=44	=44	=44	=44
8r	.	1r	.
8B-	All	.	.
16B-	that	.	.
8B-	I	.	.
[16B-	need	.	.
8B-]	_	.	.
8B-	is	.	.
8B-	just	.	.
8B-	one	.	.
=45	=45	=45	=45
8c	mo-	1r	.
16c	-ment	.	.
[16c	in	.	.
16c]	_	.	.
8c	your	.	.
16G	arms	.	.
8F	_	.	.
8r	,	.	.
16r	.	.	.
16G	I	.	.
8A	was	.	.
=46	=46	=46	=46
8B-	cha-	1r	.
16B-	-sin'	.	.
[16B-	your	.	.
16B-]	_	.	.
8B-	af-	.	.
[16B-	-ffect-	.	.
8B-]	_	.	.
8B-	-tion,	.	.
16r	.	.	.
16G	I	.	.
8B-	was	.	.
=47	=47	=47	=47
8A	do-	1r	.
16A	-in'	.	.
[16A	you	.	.
16A]	_	.	.
8A	no	.	.
[16A	harm	.	.
16A]	,	.	.
16A	and	.	.
[8B-	I	.	.
8B-]	_	.	.
8A	was	.	.
=48	=48	=48	=48
16A	lo-	1r	.
8G	-vin'	.	.
[16G	you	.	.
8G]	,	.	.
8r	.	.	.
12B-	make	.	.
12G	it	.	.
[12c	shine	.	.
8c]	,	.	.
8c	make	.	.
=49	=49	=49	=49
8c	it	1r	.
16G	rain	.	.
[16F	_	.	.
8F]	_	.	.
8r	.	.	.
8.r	.	.	.
[16G	Ba	.	.
16G]	_	.	.
16G	by,	.	.
8G	I	.	.
=50	=50	=50	=50
8G	know	1r	.
8B-	my	.	.
4G	way.	.	.
2r	.	.	.
=51	=51	=51	=51
2r	.	1r	.
8r	.	.	.
8d	I	.	.
8d	need	.	.
8d	that	.	.
=52	=52	=52	=52
8r	.	1r	.
8e-	sweet	.	.
8e-	sen-	.	.
[8f	-sa	.	.
8f]	_	.	.
cq	_	.	.
8d	tion,	.	.
16r	.	.	.
8.c	of	.	.
=53	=53	=53	=53
8d	li-	1r	.
16c	-vin'	.	.
[16c	in	.	.
16c]	_	.	.
8B-	your	.	.
[16B-	love	.	.
8B-]	_	.	.
8r	.	.	.
16r	.	.	.
16d	I	.	.
8d	can't	.	.
=54	=54	=54	=54
16e-	breathe	1r	.
8d	when	.	.
[16d	you're	.	.
8d]	_	.	.
16c	a-	.	.
[16d	-way	.	.
16d]	,	.	.
8c	it	.	.
[16d	pulls	.	.
8d]	_	.	.
16B-	me	.	.
[16c	down	.	.
=55	=55	=55	=55
16c]	_	2r	.
16B-	_	.	.
8G	_	.	.
4r	.	.	.
2r	.	8r	.
.	.	[4.g [b- [dd	Oh
=56	=56	=56	=56
1r	.	4g] b-] dd]	,
.	.	16g b- dd	you
.	.	8g b- dd	are
.	.	16g b- dd	the
.	.	8f a cc	ques-
.	.	8f a cc	-tion
.	.	8f a cc	and
.	.	8e- g b-	the
=57	=57	=57	=57
1r	.	8e- g b-	an-
.	.	8d f a	-swer
.	.	8d f a	am
.	.	[8d [g [b-	I
.	.	16d] g] b-]	_
.	.	16c f a	_
.	.	8B- d g	!
.	.	4r	.
=58	=58	=58	=58
8r	.	1r	.
16c	On-	.	.
16c	-ly	.	.
16c	you	.	.
8.c	can	.	.
8d	see	.	.
16c	me	.	.
16c	through!	.	.
4r	.	.	.
=59	=59	=59	=59
8r	.	1r	.
8d	I	.	.
8d	leave	.	.
16d	it	.	.
16d	up	.	.
8c	_	.	.
16B-	to	.	.
[16c	you	.	.
16c]	_	.	.
16B-	_	.	.
16G	!	.	.
16r	.	.	.
=60	=60	=60	=60
8F	Do	1r	.
8G	it	.	.
B-q	_	.	.
8c	light,	.	.
8r	.	.	.
8r	.	.	.
[8B-	ta	.	.
16B-]	_	.	.
16G	kin'	.	.
8F	me	.	.
=61	=61	=61	=61
8D	through	1r	.
8G	the	.	.
8G	night.	.	.
8r	.	.	.
8r	.	.	.
8F	Sha-	.	.
8G	-dow	.	.
8B-	dan-	.	.
=62	=62	=62	=62
Fq	_	1r	.
8.G	-cing	.	.
16F	_	.	.
16D	_	.	.
16C	_	.	.
8BB-	,	.	.
8r	.	.	.
[8F	ba	.	.
16F]	_	.	.
16D	by,	.	.
8C	you	.	.
=63	=63	=63	=63
8BB-	do	1r	.
16C	it	.	.
16BB-	_	.	.
8D	right	.	.
16C	_	.	.
16BB-	,	.	.
8r	.	.	.
8c	uh-	.	.
16c	-huh	.	.
16B-	_	.	.
8G	!	.	.
=64	=64	=64	=64
8F	Give	1r	.
8G	me	.	.
B-q	_	.	.
4c	more!	.	.
d-	_	.	.
c	_	.	.
8r	.	.	.
[8B-	Drag	.	.
16B-]	_	.	.
16G	me	.	.
8F	a-	.	.
=65	=65	=65	=65
8D	-cross	1r	.
8G	the	.	.
8G	floor!	.	.
8r	.	.	.
8r	.	.	.
8F	Sha-	.	.
8G	-dow	.	.
8B-	dan-	.	.
=66	=66	=66	=66
Fq	_	1r	.
8.G	-cing	.	.
16F	_	.	.
16D	_	.	.
16C	_	.	.
8BB-	,	.	.
8r	.	.	.
[8F	all	.	.
16F]	_	.	.
16D	this	.	.
8C	and	.	.
=67	=67	=67	=67
8BB-	no-	1r	.
16C	-thin'	.	.
16BB-	_	.	.
8D	more	.	.
16C	_	.	.
16BB-	!	.	.
8r	.	.	.
8d	And	.	.
8d	in	.	.
8d	this	.	.
=68	=68	=68	=68
8r	.	1r	.
8e-	world	.	.
8e-	of	.	.
8f	peo	.	.
cq	_	.	.
8d	ple,	.	.
8r	.	.	.
16r	.	.	.
8f	there's	.	.
[16f	on	.	.
=69	=69	=69	=69
16f]	_	1r	.
8d	ly	.	.
[16d	you	.	.
16d]	_	.	.
8c	and	.	.
dq	_	.	.
[16c	I	.	.
16c]	_	.	.
8.B-	!	.	.
16r	.	.	.
16d	There	.	.
8d	ain't	.	.
=70	=70	=70	=70
16e-	no-	1r	.
8e-	-thin'	.	.
[16e-	come	.	.
16e-]	_	.	.
8d	be-	.	.
[16d	-tween	.	.
16d]	_	.	.
8c	us	.	.
cq	_	.	.
[16d	in	.	.
8d]	_	.	.
16c	the	.	.
[16c	end	.	.
=71	=71	=71	=71
16c]	_	4r	.
16B-	_	.	.
8G	!	.	.
4r	.	8r	.
.	.	[8g [b- [dd	How
2r	.	2g_ b-_ dd_	_
=72	=72	=72	=72
1r	.	4g] b-] dd]	_
.	.	16g b- dd	can
.	.	8g b- dd	I
.	.	16g b- dd	hold
.	.	8f a cc	_
.	.	8f a cc	you
.	.	8f a cc	when
.	.	8e- g b-	you
=73	=73	=73	=73
1r	.	8e- g b-	ain't
.	.	8d f a	e-
.	.	8d f a	-ven
.	.	[8d [g [b-	mine
.	.	16d] g] b-]	_
.	.	16c f a	_
.	.	8B- d g	?
.	.	4r	.
=74	=74	=74	=74
8r	.	1r	.
16c	On-	.	.
16c	-ly	.	.
16c	you	.	.
8.c	can	.	.
8d	see	.	.
16c	me	.	.
16c	through!	.	.
4r	.	.	.
=75	=75	=75	=75
8r	.	1r	.
8d	I	.	.
8d	leave	.	.
16d	it	.	.
16d	up	.	.
8c	_	.	.
16B-	to	.	.
[16c	you	.	.
16c]	_	.	.
16B-	!	.	.
8r	.	.	.
=76	=76	=76	=76
8r	.	1r	.
[4.d	Oh	.	.
8d]	_	.	.
16c	_	.	.
16B-	!	.	.
8r	.	.	.
16G	Uh	.	.
16B-	!	.	.
=77	=77	=77	=77
8F	Do	1r	.
8G	it	.	.
B-q	_	.	.
8c	light,	.	.
8r	.	.	.
8r	.	.	.
[8B-	ta	.	.
16B-]	_	.	.
16G	kin'	.	.
8F	me	.	.
=78	=78	=78	=78
8D	through	1r	.
8G	the	.	.
8G	night.	.	.
8r	.	.	.
8r	.	.	.
8F	Sha-	.	.
8G	-dow	.	.
8B-	dan-	.	.
=79	=79	=79	=79
Fq	_	1r	.
8.G	-cing	.	.
16F	_	.	.
16D	_	.	.
16C	_	.	.
8BB-	,	.	.
8r	.	.	.
[8F	ba	.	.
16F]	_	.	.
16D	by,	.	.
8C	you	.	.
=80	=80	=80	=80
8BB-	do	1r	.
16C	it	.	.
16BB-	_	.	.
8D	right	.	.
16C	_	.	.
16BB-	,	.	.
8r	.	.	.
8c	uh-	.	.
16c	-huh	.	.
16B-	_	.	.
8G	!	.	.
=81	=81	=81	=81
8F	Give	1r	.
8G	me	.	.
B-q	_	.	.
4c	more!	.	.
d-	_	.	.
c	_	.	.
8r	.	.	.
[8B-	Drag	.	.
16B-]	_	.	.
16G	me	.	.
8F	a-	.	.
=82	=82	=82	=82
8D	-cross	1r	.
8G	the	.	.
8G	floor!	.	.
8r	.	.	.
8r	.	.	.
8F	Sha-	.	.
8G	-dow	.	.
8B-	dan-	.	.
=83	=83	=83	=83
Fq	_	1r	.
8.G	-cing	.	.
16F	_	.	.
16D	_	.	.
16C	_	.	.
8BB-	,	.	.
8r	.	.	.
[8F	all	.	.
16F]	_	.	.
16D	this	.	.
8C	and	.	.
=84	=84	=84	=84
8BB-	no-	1r	.
16C	-thin'	.	.
16BB-	_	.	.
8D	more	.	.
16C	_	.	.
16BB-	!	.	.
2r	.	.	.
=85	=85	=85	=85
8F	Do	1r	.
8G	it	.	.
B-q	_	.	.
8c	light,	.	.
8r	.	.	.
8r	.	.	.
[8B-	ta	.	.
16B-]	_	.	.
16G	kin'	.	.
8F	me	.	.
=86	=86	=86	=86
8D	through	1r	.
8G	the	.	.
8G	night.	.	.
8r	.	.	.
8r	.	.	.
8F	Sha-	.	.
8G	-dow	.	.
8B-	dan-	.	.
=87	=87	=87	=87
Fq	_	1r	.
8.G	-cing	.	.
16F	_	.	.
16D	_	.	.
16C	_	.	.
8BB-	,	.	.
8r	.	.	.
[8F	ba	.	.
16F]	_	.	.
16D	by,	.	.
8C	you	.	.
=88	=88	=88	=88
8BB-	do	1r	.
16C	it	.	.
16BB-	_	.	.
8D	right	.	.
16C	_	.	.
16BB-	,	.	.
8r	.	.	.
8c	uh-	.	.
16c	-huh	.	.
16B-	_	.	.
8G	!	.	.
=89	=89	=89	=89
8F	Give	1r	.
8G	me	.	.
B-q	_	.	.
4c	more!	.	.
d-	_	.	.
c	_	.	.
8r	.	.	.
[8B-	Drag	.	.
16B-]	_	.	.
16G	me	.	.
8F	a-	.	.
=90	=90	=90	=90
8D	-cross	1r	.
8G	the	.	.
8G	floor!	.	.
8r	.	.	.
8r	.	.	.
8F	Sha-	.	.
8G	-dow	.	.
8B-	dan-	.	.
=91	=91	=91	=91
Fq	_	1r	.
8.G	-cing	.	.
16F	_	.	.
16D	_	.	.
16C	_	.	.
8BB-	,	.	.
8r	.	.	.
[8F	all	.	.
16F]	_	.	.
16D	this	.	.
8C	and	.	.
=92	=92	=92	=92
8BB-	no-	1r	.
16C	-thin'	.	.
16BB-	_	.	.
8D	more	.	.
16C	_	.	.
16BB-	!	.	.
2r	.	.	.
=93	=93	=93	=93
8F	Do	1r	.
8G	it	.	.
B-q	_	.	.
8c	light,	.	.
8r	.	.	.
8r	.	.	.
[8B-	ta	.	.
16B-]	_	.	.
16G	kin'	.	.
8F	me	.	.
=94	=94	=94	=94
8D	through	1r	.
8G	the	.	.
8G	night.	.	.
8r	.	.	.
8r	.	.	.
8F	Sha-	.	.
8G	-dow	.	.
8B-	dan-	.	.
=95	=95	=95	=95
Fq	_	1r	.
8.G	-cing	.	.
16F	_	.	.
16D	_	.	.
16C	_	.	.
8BB-	,	.	.
8r	.	.	.
[8F	ba	.	.
16F]	_	.	.
16D	by,	.	.
8C	you	.	.
=96	=96	=96	=96
8BB-	do	1r	.
16C	it	.	.
16BB-	_	.	.
8D	right	.	.
16C	_	.	.
16BB-	,	.	.
16r	.	.	.
8.c	Uh-	.	.
8c	-huh	.	.
16B-	_	.	.
16G	!	.	.
=97	=97	=97	=97
8F	Give	1r	.
8G	me	.	.
B-q	_	.	.
4c	more!	.	.
d-	_	.	.
c	_	.	.
8r	.	.	.
[8B-	Drag	.	.
16B-]	_	.	.
16G	me	.	.
8F	a-	.	.
=98	=98	=98	=98
8D	-cross	1r	.
8G	the	.	.
8G	floor!	.	.
8r	.	.	.
8r	.	.	.
8F	Sha-	.	.
8G	-dow	.	.
8B-	dan-	.	.
=99	=99	=99	=99
Fq	_	1r	.
8.G	-cing	.	.
16F	_	.	.
16D	_	.	.
16C	_	.	.
8BB-	,	.	.
8r	.	.	.
[8F	all	.	.
16F]	_	.	.
16D	this	.	.
8C	and	.	.
=100	=100	=100	=100
8BB-	no-	1r	.
16C	-thin'	.	.
16BB-	_	.	.
8D	more	.	.
16C	_	.	.
16BB-	!	.	.
2r	.	.	.
=101	=101	=101	=101
8F	Do	1r	.
8G	it	.	.
B-q	_	.	.
8c	light,	.	.
8r	.	.	.
8r	.	.	.
[8B-	ta	.	.
16B-]	_	.	.
16G	kin'	.	.
8F	me	.	.
=102	=102	=102	=102
8D	through	1r	.
8G	the	.	.
8G	night.	.	.
8r	.	.	.
8r	.	.	.
8F	Sha-	.	.
8G	-dow	.	.
8B-	dan-	.	.
=103	=103	=103	=103
Fq	_	1r	.
8.G	-cing	.	.
16F	_	.	.
16D	_	.	.
16C	_	.	.
8BB-	,	.	.
8r	.	.	.
[8F	ba	.	.
16F]	_	.	.
16D	by,	.	.
8C	you	.	.
=104	=104	=104	=104
8BB-	do	1r	.
16C	it	.	.
16BB-	_	.	.
8D	right	.	.
16C	_	.	.
16BB-	,	.	.
8r	.	.	.
8c	uh-	.	.
16c	-huh	.	.
16B-	_	.	.
8G	!	.	.
=105	=105	=105	=105
8F	Give	1r	.
8G	me	.	.
B-q	_	.	.
4c	more!	.	.
d-	_	.	.
c	_	.	.
8r	.	.	.
[8B-	Drag	.	.
16B-]	_	.	.
16G	me	.	.
8F	a-	.	.
=106	=106	=106	=106
8D	-cross	1r	.
8G	the	.	.
8G	floor!	.	.
8r	.	.	.
8r	.	.	.
8F	Sha-	.	.
8G	-dow	.	.
8B-	dan-	.	.
=107	=107	=107	=107
Fq	_	1r	.
8.G	-cing	.	.
16F	_	.	.
16D	_	.	.
16C	_	.	.
8BB-	,	.	.
8r	.	.	.
[8F	all	.	.
16F]	_	.	.
16D	this	.	.
8C	and	.	.
*-	*-	*-	*-
!!!ENC: Nathaniel Condit-Schultz